src/lib/packages/icons/src/assets/line/hockey-stick-puck.svg

<svg width="24" height="24" viewBox="0 0 24 24" fill="none" xmlns="http://www.w3.org/2000/svg">
<path d="M19.5 16.25H16.5C15.09 16.25 14.25 17.09 14.25 18.5V19.5C14.25 20.91 15.09 21.75 16.5 21.75H19.5C20.91 21.75 21.75 20.91 21.75 19.5V18.5C21.75 17.09 20.91 16.25 19.5 16.25ZM20.25 19.5C20.25 20.09 20.09 20.25 19.5 20.25H16.5C15.91 20.25 15.75 20.09 15.75 19.5V18.5C15.75 17.91 15.91 17.75 16.5 17.75H19.5C20.09 17.75 20.25 17.91 20.25 18.5V19.5ZM18.27 2.30003C17.88 2.15003 17.45 2.34002 17.3 2.73002L13.76 11.82C13.42 12.69 12.6 13.25 11.66 13.25H4.48999C3.24999 13.25 2.23999 14.26 2.23999 15.5V19.5C2.23999 20.74 3.24999 21.75 4.48999 21.75H8.94C10.48 21.75 11.88 20.79 12.43 19.36L18.69 3.27003C18.84 2.88003 18.65 2.45003 18.26 2.30003H18.27ZM3.75 19.5V15.5C3.75 15.09 4.09 14.75 4.5 14.75H6.25V20.25H4.5C4.09 20.25 3.75 19.91 3.75 19.5ZM11.04 18.82C10.71 19.67 9.87001 20.25 8.95001 20.25H7.75V14.75H11.67C12.02 14.75 12.36 14.7 12.68 14.61L11.04 18.82Z" fill="currentColor"/>
</svg>

<svg xmlns="http://www.w3.org/2000/svg" width="24" height="24" fill="none"><path fill="currentColor" d="M19.5 16.25h-3c-1.41 0-2.25.84-2.25 2.25v1c0 1.41.84 2.25 2.25 2.25h3c1.41 0 2.25-.84 2.25-2.25v-1c0-1.41-.84-2.25-2.25-2.25Zm.75 3.25c0 .59-.16.75-.75.75h-3c-.59 0-.75-.16-.75-.75v-1c0-.59.16-.75.75-.75h3c.59 0 .75.16.75.75v1ZM18.27 2.3a.746.746 0 0 0-.97.43l-3.54 9.09c-.34.87-1.16 1.43-2.1 1.43H4.49c-1.24 0-2.25 1.01-2.25 2.25v4c0 1.24 1.01 2.25 2.25 2.25h4.45c1.54 0 2.94-.96 3.49-2.39l6.26-16.09a.746.746 0 0 0-.43-.97h.01ZM3.75 19.5v-4c0-.41.34-.75.75-.75h1.75v5.5H4.5c-.41 0-.75-.34-.75-.75Zm7.29-.68a2.26 2.26 0 0 1-2.09 1.43h-1.2v-5.5h3.92c.35 0 .69-.05 1.01-.14l-1.64 4.21Z"/></svg>
